usr/share/icons/biglinux-icons-material/22/actions/distribute-horizontal-page.svg

<svg xmlns="http://www.w3.org/2000/svg" viewBox="0 0 22 22">
  <defs id="defs3051">
    <style type="text/css" id="current-color-scheme">
      .ColorScheme-Text {
        color:#dedede;
      }
      </style>
  </defs>
 <path 
    style="fill:currentColor;fill-opacity:1;stroke:none" 
    d="m3 3v1 15h1 11l1.333984-1 1.666016-1.25 1-.75v-12-1h-16m1 1h14v12h-3v2h-11v-14m1 3v8h5v-8h-5m7 0v8h5v-8h-5m-6 1h3v6h-3v-6m7 0h3v6h-3v-6" 
    class="ColorScheme-Text"
    />
</svg>

<svg xmlns="http://www.w3.org/2000/svg" viewBox="0 0 22 22"><path d="M3 3v16h12l1.334-1L18 16.75l1-.75V3H3m1 1h14v12h-3v2H4V4m1 3v8h5V7H5m7 0v8h5V7h-5M6 8h3v6H6V8m7 0h3v6h-3V8" style="fill:currentColor;fill-opacity:1;stroke:none;color:#dedede"/></svg>
